X:389
T: Tichu haozi
N: C1424
O: China, Gansu, Minqin
S: I, 143]
R: Haozi]
M: 2/4
L: 1/16
K: Eb
B2B2c2BG | c2BGF4
c2GBGFB,C | FGE2F4
F2FGE2C2 | F2FGF4
E2DCB,2B,C | FGE2F2C2
B2GBGFEC | F2FGB4
G2GFC2CE | FGE2F4
F4GFEC | B3GF4
FGFEC2B,C | F3EF4
f2f2fdcf | cBAGF4
F2E2C2B,C | FGE2F4
B2GBcBAB | cBAGF4
FGFEC2B,C | FGE2F4
f2fcBcfc | B2AGF2B2
F2E2F2B,C | FGE2F4
F4GFEC | B3GF4
c3GB2EC | F3EF4

